X: 1
T: My wife is a winsome wee thing
O: Arr: Peter White
R: jig
B: Hugh Foss "DANCES to SONG TUNES" 1966 (music: Peter White)
Z: 2010 John Chambers <jc:trillian.mit.edu>
M: 6/8
L: 1/8
K: C
e/d/ \
| "C"c2G "F"AcG | "C"c3 G2A | "Bb"_B>cB FDF | "Bb"_B3 D2e/d/ |
| "C"c2G "F"AcG | "C"c3 "G7"G2F | "C"ECE "G7"DB,D | "C"C3- C2 ||
E/F/ \
| "C"G>AG ECE | "C"G3 E2E | "Bb"F>GF D_B,D | "Bb"F3 D2E/F/ |
| "C"G>AG ECE | "C"G3 g2f | "C"ece "G7"dBd | "C"c3- c2 |]
